Newaita-dark/apps/24/messengerfordesktop.svg

<svg height="24" viewBox="0 0 24 24" width="24" xmlns="http://www.w3.org/2000/svg" xmlns:xlink="http://www.w3.org/1999/xlink"><linearGradient id="a"><stop offset="0" stop-opacity=".313726"/><stop offset=".222222" stop-opacity=".27451"/><stop offset="1" stop-opacity="0"/></linearGradient><radialGradient id="b" cx="450.908936" cy="189.579361" gradientTransform="matrix(.00000013 -.0585994 -.105479 -.00000008 32.152012 47.696497)" gradientUnits="userSpaceOnUse" r="21.166656" xlink:href="#a"/><radialGradient id="c" cx="450.908936" cy="189.579361" gradientTransform="matrix(-.00000013 .0585994 .105479 .00000008 -15.779352 -5.645612)" gradientUnits="userSpaceOnUse" r="21.166656" xlink:href="#a"/><radialGradient id="d" cx="450.908936" cy="189.579361" gradientTransform="matrix(-.00000013 -.0585994 .105479 -.00000008 -15.779352 47.696497)" gradientUnits="userSpaceOnUse" r="21.166656" xlink:href="#a"/><radialGradient id="e" cx="450.908936" cy="189.579361" gradientTransform="matrix(.00000013 .0585994 -.105479 .00000008 32.152009 -5.645612)" gradientUnits="userSpaceOnUse" r="21.166656" xlink:href="#a"/><linearGradient id="f" gradientTransform="matrix(.0243344 0 0 .0468795 1.973198 10.079088)" gradientUnits="userSpaceOnUse" x1="255.323059" x2="255.323044" y1="233.5" y2="254.666656"><stop offset="0" stop-opacity=".27451"/><stop offset="1" stop-opacity="0"/></linearGradient><linearGradient id="g"><stop offset="0" stop-color="#82b1ff"/><stop offset="1" stop-color="#448aff"/></linearGradient><linearGradient id="h" gradientUnits="userSpaceOnUse" x1="126.656886" x2="126.656886" xlink:href="#g" y1="148.833328" y2="233.5"/><linearGradient id="i" gradientUnits="userSpaceOnUse" x1="254" x2="254" xlink:href="#g" y1="-168.666672" y2="233.5"/><linearGradient id="j"><stop offset="0" stop-color="#e0e0e0"/><stop offset="1" stop-color="#f5f5f5"/></linearGradient><linearGradient id="k" gradientTransform="matrix(.0468795 0 0 -.0468795 0 13.11844)" gradientUnits="userSpaceOnUse" x1="254" x2="254" xlink:href="#j" y1=".666667" y2="64.166664"/><linearGradient id="l" gradientTransform="matrix(.0468795 0 0 -.0468795 4.46527 13.11844)" gradientUnits="userSpaceOnUse" x1="254" x2="254" xlink:href="#j" y1=".666667" y2="64.166664"/><linearGradient id="m" gradientTransform="matrix(.0468795 0 0 -.0468795 -4.46527 13.11844)" gradientUnits="userSpaceOnUse" x1="254" x2="254" xlink:href="#j" y1=".666667" y2="64.166664"/><path d="m12.402344 21.027344h1.984375v-.996094h-1.984375zm0 0" fill="url(#b)"/><path d="m3.96875 21.027344h-1.984375v.992187h1.984375zm0 0" fill="url(#c)"/><path d="m3.96875 21.027344h-1.984375v-.996094h1.984375zm0 0" fill="url(#d)"/><path d="m12.402344 21.027344h1.984375v.992187h-1.984375zm0 0" fill="url(#e)"/><path d="m3.96875 20.777344h8.433594v1.242187h-8.433594zm0 0" fill="url(#f)"/><path d="m126.987873 148.881918c-2.666412-.083326-5.166173.749928-7.249307 2.499761l-74.07626 63.493937c-7.415958 6.416054-2.916388 18.581558 6.916006 18.581558h211.646456c11.332251 0 14.748591-15.415194 4.416245-20.164741l-137.570196-63.493936c-1.249881-.583278-2.666412-.916579-4.082944-.916579zm0 0" style="fill-rule:evenodd;stroke-width:3;stroke-linecap:round;stroke-linejoin:round;stroke:#212121;fill:url(#h)" transform="matrix(.0468795 0 0 .0468795 0 10.079087)"/><path d="m253.975747-168.671091c111.072726 0 201.147458 89.991406 201.147458 201.064133 0 111.072726-90.074732 201.147458-201.147458 201.147458-110.989402 0-201.064133-90.074732-201.064133-201.147458 0-111.072727 90.074731-201.064133 201.064133-201.064133zm0 0" fill="url(#i)" stroke="#333" stroke-linecap="round" stroke-width="3" transform="matrix(.0468795 0 0 .0468795 0 10.079087)"/><path d="m11.90625 21.027344c-5.222656 0-9.425781-4.207032-9.425781-9.429688 0-.03125 0-.058594 0-.089844.050781 5.179688 4.234375 9.332032 9.425781 9.332032s9.378906-4.152344 9.425781-9.332032c0 .03125.003907.058594.003907.089844 0 5.222656-4.207032 9.429688-9.429688 9.429688zm0 0" fill-opacity=".196078"/><path d="m11.90625 2.171875c-5.222656 0-9.425781 4.203125-9.425781 9.425781v.09375c.050781-5.179687 4.234375-9.335937 9.425781-9.335937s9.378906 4.15625 9.425781 9.335937c0-.03125.003907-.0625.003907-.09375 0-5.222656-4.207032-9.425781-9.429688-9.425781zm0 0" fill="#fff" fill-opacity=".392157"/><path d="m11.90625 2.101562c-5.257812 0-9.496094 4.238282-9.496094 9.496094 0 5.261719 4.238282 9.5 9.496094 9.5 5.261719 0 9.5-4.238281 9.5-9.5 0-5.257812-4.238281-9.496094-9.5-9.496094zm0 .140626c5.1875 0 9.359375 4.171874 9.359375 9.355468 0 5.1875-4.171875 9.359375-9.359375 9.359375-5.183594 0-9.355469-4.171875-9.355469-9.359375 0-5.183594 4.171875-9.355468 9.355469-9.355468zm0 0" fill="#212121"/><path d="m11.90625 13.085938c.824219 0 1.488281-.664063 1.488281-1.488282 0-.820312-.664062-1.488281-1.488281-1.488281-.820312 0-1.488281.667969-1.488281 1.488281 0 .824219.667969 1.488282 1.488281 1.488282zm0 0" fill="url(#k)"/><path d="m16.371094 13.085938c.824218 0 1.488281-.664063 1.488281-1.488282 0-.820312-.664063-1.488281-1.488281-1.488281-.820313 0-1.488282.667969-1.488282 1.488281 0 .824219.667969 1.488282 1.488282 1.488282zm0 0" fill="url(#l)"/><path d="m7.441406 13.085938c.824219 0 1.488282-.664063 1.488282-1.488282 0-.820312-.664063-1.488281-1.488282-1.488281-.820312 0-1.488281.667969-1.488281 1.488281 0 .824219.667969 1.488282 1.488281 1.488282zm0 0" fill="url(#m)"/><path d="m11.90625 10.109375c-.824219 0-1.488281.664063-1.488281 1.488281 0 .0625.003906.125.011719.1875.089843-.738281.714843-1.300781 1.476562-1.300781s1.386719.5625 1.476562 1.300781c.007813-.0625.011719-.125.011719-.1875 0-.824218-.664062-1.488281-1.488281-1.488281zm0 0" fill="#fcfcfc"/><path d="m16.371094 10.109375c-.824219 0-1.488282.664063-1.488282 1.488281 0 .0625.003907.125.011719.1875.09375-.738281.714844-1.300781 1.476563-1.300781.761718 0 1.386718.5625 1.480468 1.300781.003907-.0625.007813-.125.007813-.1875 0-.824218-.664063-1.488281-1.488281-1.488281zm0 0" fill="#fcfcfc"/><path d="m7.441406 10.109375c-.824218 0-1.488281.664063-1.488281 1.488281 0 .0625.003906.125.011719.1875.089844-.738281.714844-1.300781 1.476562-1.300781.761719 0 1.386719.5625 1.476563 1.300781.007812-.0625.011719-.125.011719-.1875 0-.824218-.664063-1.488281-1.488282-1.488281zm0 0" fill="#fcfcfc"/><path d="m10.441406 11.847656c-.015625.078125-.023437.164063-.023437.246094 0 .824219.664062 1.488281 1.488281 1.488281s1.488281-.664062 1.488281-1.488281c0-.082031-.003906-.167969-.019531-.246094-.117188.703125-.726562 1.238282-1.46875 1.238282-.738281 0-1.347656-.535157-1.464844-1.238282zm0 0" fill-opacity=".235294"/><path d="m14.90625 11.847656c-.015625.078125-.023438.164063-.023438.246094 0 .824219.664063 1.488281 1.488282 1.488281.824218 0 1.488281-.664062 1.488281-1.488281 0-.082031-.003906-.167969-.019531-.246094-.117188.703125-.726563 1.238282-1.46875 1.238282-.738282 0-1.347656-.535157-1.464844-1.238282zm0 0" fill-opacity=".235294"/><path d="m5.972656 11.847656c-.011718.078125-.019531.164063-.019531.246094 0 .824219.664063 1.488281 1.488281 1.488281.824219 0 1.488282-.664062 1.488282-1.488281 0-.082031-.007813-.167969-.019532-.246094-.117187.703125-.726562 1.238282-1.46875 1.238282-.738281 0-1.351562-.535157-1.46875-1.238282zm0 0" fill-opacity=".235294"/><g stroke="#212121" stroke-linecap="round" stroke-linejoin="round" stroke-width="3"><path d="m253.975747-64.14001c17.581654 0 31.746968 14.165314 31.746968 31.746968 0 17.498329-14.165314 31.746969-31.746968 31.746969-17.498329 0-31.746969-14.24864-31.746969-31.746969 0-17.581654 14.24864-31.746968 31.746969-31.746968zm0 0" fill="none" transform="matrix(.0468795 0 0 -.0468795 0 10.079087)"/><path d="m349.216651-64.14001c17.581655 0 31.746969 14.165314 31.746969 31.746968 0 17.498329-14.165314 31.746969-31.746969 31.746969-17.498329 0-31.746968-14.24864-31.746968-31.746969 0-17.581654 14.248639-31.746968 31.746968-31.746968zm0 0" fill="none" transform="matrix(.0468795 0 0 -.0468795 0 10.079087)"/><path d="m158.734842-64.14001c17.581654 0 31.746968 14.165314 31.746968 31.746968 0 17.498329-14.165314 31.746969-31.746968 31.746969-17.498329 0-31.746969-14.24864-31.746969-31.746969 0-17.581654 14.24864-31.746968 31.746969-31.746968zm0 0" fill="none" transform="matrix(.0468795 0 0 -.0468795 0 10.079087)"/></g></svg>

<?xml version="1.0" encoding="UTF-8"?>
<svg xmlns="http://www.w3.org/2000/svg" xmlns:xlink="http://www.w3.org/1999/xlink" width="24px" height="24px" viewBox="0 0 24 24" version="1.1">
<defs>
<radialGradient id="radial0" gradientUnits="userSpaceOnUse" cx="450.908936" cy="189.579361" fx="450.908936" fy="189.579361" r="21.166656" gradientTransform="matrix(0.000000130628,-0.0585994,-0.105479,-0.0000000761539,32.152012,47.696497)">
<stop offset="0" style="stop-color:rgb(0%,0%,0%);stop-opacity:0.313726;"/>
<stop offset="0.222222" style="stop-color:rgb(0%,0%,0%);stop-opacity:0.27451;"/>
<stop offset="1" style="stop-color:rgb(0%,0%,0%);stop-opacity:0;"/>
</radialGradient>
<radialGradient id="radial1" gradientUnits="userSpaceOnUse" cx="450.908936" cy="189.579361" fx="450.908936" fy="189.579361" r="21.166656" gradientTransform="matrix(-0.000000130628,0.0585994,0.105479,0.0000000761539,-15.779352,-5.645612)">
<stop offset="0" style="stop-color:rgb(0%,0%,0%);stop-opacity:0.313726;"/>
<stop offset="0.222222" style="stop-color:rgb(0%,0%,0%);stop-opacity:0.27451;"/>
<stop offset="1" style="stop-color:rgb(0%,0%,0%);stop-opacity:0;"/>
</radialGradient>
<radialGradient id="radial2" gradientUnits="userSpaceOnUse" cx="450.908936" cy="189.579361" fx="450.908936" fy="189.579361" r="21.166656" gradientTransform="matrix(-0.000000130628,-0.0585994,0.105479,-0.0000000761539,-15.779352,47.696497)">
<stop offset="0" style="stop-color:rgb(0%,0%,0%);stop-opacity:0.313726;"/>
<stop offset="0.222222" style="stop-color:rgb(0%,0%,0%);stop-opacity:0.27451;"/>
<stop offset="1" style="stop-color:rgb(0%,0%,0%);stop-opacity:0;"/>
</radialGradient>
<radialGradient id="radial3" gradientUnits="userSpaceOnUse" cx="450.908936" cy="189.579361" fx="450.908936" fy="189.579361" r="21.166656" gradientTransform="matrix(0.000000130628,0.0585994,-0.105479,0.0000000761539,32.152009,-5.645612)">
<stop offset="0" style="stop-color:rgb(0%,0%,0%);stop-opacity:0.313726;"/>
<stop offset="0.222222" style="stop-color:rgb(0%,0%,0%);stop-opacity:0.27451;"/>
<stop offset="1" style="stop-color:rgb(0%,0%,0%);stop-opacity:0;"/>
</radialGradient>
<linearGradient id="linear0" gradientUnits="userSpaceOnUse" x1="255.323059" y1="233.5" x2="255.323044" y2="254.666656" gradientTransform="matrix(0.0243344,0,0,0.0468795,1.973198,10.079088)">
<stop offset="0" style="stop-color:rgb(0%,0%,0%);stop-opacity:0.27451;"/>
<stop offset="1" style="stop-color:rgb(0%,0%,0%);stop-opacity:0;"/>
</linearGradient>
<linearGradient id="linear1" gradientUnits="userSpaceOnUse" x1="116.416656" y1="148.833328" x2="116.416656" y2="233.5" gradientTransform="matrix(1,0,0,1,10.24023,0)">
<stop offset="0" style="stop-color:rgb(50.980395%,69.411767%,100%);stop-opacity:1;"/>
<stop offset="1" style="stop-color:rgb(26.666668%,54.11765%,100%);stop-opacity:1;"/>
</linearGradient>
<linearGradient id="linear2" gradientUnits="userSpaceOnUse" x1="254" y1="-168.666672" x2="254" y2="233.5" gradientTransform="matrix(1,0,0,1,0,0)">
<stop offset="0" style="stop-color:rgb(50.980395%,69.411767%,100%);stop-opacity:1;"/>
<stop offset="1" style="stop-color:rgb(26.666668%,54.11765%,100%);stop-opacity:1;"/>
</linearGradient>
<linearGradient id="linear3" gradientUnits="userSpaceOnUse" x1="254" y1="0.666667" x2="254" y2="64.166664" gradientTransform="matrix(0.0468795,0,0,-0.0468795,0,13.11844)">
<stop offset="0" style="stop-color:rgb(87.843138%,87.843138%,87.843138%);stop-opacity:1;"/>
<stop offset="1" style="stop-color:rgb(96.078432%,96.078432%,96.078432%);stop-opacity:1;"/>
</linearGradient>
<linearGradient id="linear4" gradientUnits="userSpaceOnUse" x1="254" y1="0.666667" x2="254" y2="64.166664" gradientTransform="matrix(0.0468795,0,0,-0.0468795,4.46527,13.11844)">
<stop offset="0" style="stop-color:rgb(87.843138%,87.843138%,87.843138%);stop-opacity:1;"/>
<stop offset="1" style="stop-color:rgb(96.078432%,96.078432%,96.078432%);stop-opacity:1;"/>
</linearGradient>
<linearGradient id="linear5" gradientUnits="userSpaceOnUse" x1="254" y1="0.666667" x2="254" y2="64.166664" gradientTransform="matrix(0.0468795,0,0,-0.0468795,-4.46527,13.11844)">
<stop offset="0" style="stop-color:rgb(87.843138%,87.843138%,87.843138%);stop-opacity:1;"/>
<stop offset="1" style="stop-color:rgb(96.078432%,96.078432%,96.078432%);stop-opacity:1;"/>
</linearGradient>
</defs>
<g id="surface1">
<path style=" stroke:none;fill-rule:nonzero;fill:url(#radial0);" d="M 12.402344 21.027344 L 14.386719 21.027344 L 14.386719 20.03125 L 12.402344 20.03125 Z M 12.402344 21.027344 "/>
<path style=" stroke:none;fill-rule:nonzero;fill:url(#radial1);" d="M 3.96875 21.027344 L 1.984375 21.027344 L 1.984375 22.019531 L 3.96875 22.019531 Z M 3.96875 21.027344 "/>
<path style=" stroke:none;fill-rule:nonzero;fill:url(#radial2);" d="M 3.96875 21.027344 L 1.984375 21.027344 L 1.984375 20.03125 L 3.96875 20.03125 Z M 3.96875 21.027344 "/>
<path style=" stroke:none;fill-rule:nonzero;fill:url(#radial3);" d="M 12.402344 21.027344 L 14.386719 21.027344 L 14.386719 22.019531 L 12.402344 22.019531 Z M 12.402344 21.027344 "/>
<path style=" stroke:none;fill-rule:nonzero;fill:url(#linear0);" d="M 3.96875 20.777344 L 12.402344 20.777344 L 12.402344 22.019531 L 3.96875 22.019531 Z M 3.96875 20.777344 "/>
<path style="fill-rule:evenodd;fill:url(#linear1);stroke-width:3;stroke-linecap:round;stroke-linejoin:round;stroke:rgb(12.941177%,12.941177%,12.941177%);stroke-opacity:1;stroke-miterlimit:4;" d="M 126.987873 148.881918 C 124.321461 148.798592 121.8217 149.631846 119.738566 151.381679 L 45.662306 214.875616 C 38.246348 221.29167 42.745918 233.457174 52.578312 233.457174 L 264.224768 233.457174 C 275.557019 233.457174 278.973359 218.04198 268.641013 213.292433 L 131.070817 149.798497 C 129.820936 149.215219 128.404405 148.881918 126.987873 148.881918 Z M 126.987873 148.881918 " transform="matrix(0.0468795,0,0,0.0468795,0,10.079087)"/>
<path style="fill-rule:nonzero;fill:url(#linear2);stroke-width:3;stroke-linecap:round;stroke-linejoin:miter;stroke:rgb(20%,20%,20%);stroke-opacity:1;stroke-miterlimit:4;" d="M 253.975747 -168.671091 C 365.048473 -168.671091 455.123205 -78.679685 455.123205 32.393042 C 455.123205 143.465768 365.048473 233.5405 253.975747 233.5405 C 142.986345 233.5405 52.911614 143.465768 52.911614 32.393042 C 52.911614 -78.679685 142.986345 -168.671091 253.975747 -168.671091 Z M 253.975747 -168.671091 " transform="matrix(0.0468795,0,0,0.0468795,0,10.079087)"/>
<path style=" stroke:none;fill-rule:nonzero;fill:rgb(0%,0%,0%);fill-opacity:0.196078;" d="M 11.90625 21.027344 C 6.683594 21.027344 2.480469 16.820312 2.480469 11.597656 C 2.480469 11.566406 2.480469 11.539062 2.480469 11.507812 C 2.53125 16.6875 6.714844 20.839844 11.90625 20.839844 C 17.097656 20.839844 21.285156 16.6875 21.332031 11.507812 C 21.332031 11.539062 21.335938 11.566406 21.335938 11.597656 C 21.335938 16.820312 17.128906 21.027344 11.90625 21.027344 Z M 11.90625 21.027344 "/>
<path style=" stroke:none;fill-rule:nonzero;fill:rgb(100%,100%,100%);fill-opacity:0.392157;" d="M 11.90625 2.171875 C 6.683594 2.171875 2.480469 6.375 2.480469 11.597656 C 2.480469 11.628906 2.480469 11.660156 2.480469 11.691406 C 2.53125 6.511719 6.714844 2.355469 11.90625 2.355469 C 17.097656 2.355469 21.285156 6.511719 21.332031 11.691406 C 21.332031 11.660156 21.335938 11.628906 21.335938 11.597656 C 21.335938 6.375 17.128906 2.171875 11.90625 2.171875 Z M 11.90625 2.171875 "/>
<path style=" stroke:none;fill-rule:nonzero;fill:rgb(12.941177%,12.941177%,12.941177%);fill-opacity:1;" d="M 11.90625 2.101562 C 6.648438 2.101562 2.410156 6.339844 2.410156 11.597656 C 2.410156 16.859375 6.648438 21.097656 11.90625 21.097656 C 17.167969 21.097656 21.40625 16.859375 21.40625 11.597656 C 21.40625 6.339844 17.167969 2.101562 11.90625 2.101562 Z M 11.90625 2.242188 C 17.09375 2.242188 21.265625 6.414062 21.265625 11.597656 C 21.265625 16.785156 17.09375 20.957031 11.90625 20.957031 C 6.722656 20.957031 2.550781 16.785156 2.550781 11.597656 C 2.550781 6.414062 6.722656 2.242188 11.90625 2.242188 Z M 11.90625 2.242188 "/>
<path style=" stroke:none;fill-rule:nonzero;fill:url(#linear3);" d="M 11.90625 13.085938 C 12.730469 13.085938 13.394531 12.421875 13.394531 11.597656 C 13.394531 10.777344 12.730469 10.109375 11.90625 10.109375 C 11.085938 10.109375 10.417969 10.777344 10.417969 11.597656 C 10.417969 12.421875 11.085938 13.085938 11.90625 13.085938 Z M 11.90625 13.085938 "/>
<path style=" stroke:none;fill-rule:nonzero;fill:url(#linear4);" d="M 16.371094 13.085938 C 17.195312 13.085938 17.859375 12.421875 17.859375 11.597656 C 17.859375 10.777344 17.195312 10.109375 16.371094 10.109375 C 15.550781 10.109375 14.882812 10.777344 14.882812 11.597656 C 14.882812 12.421875 15.550781 13.085938 16.371094 13.085938 Z M 16.371094 13.085938 "/>
<path style=" stroke:none;fill-rule:nonzero;fill:url(#linear5);" d="M 7.441406 13.085938 C 8.265625 13.085938 8.929688 12.421875 8.929688 11.597656 C 8.929688 10.777344 8.265625 10.109375 7.441406 10.109375 C 6.621094 10.109375 5.953125 10.777344 5.953125 11.597656 C 5.953125 12.421875 6.621094 13.085938 7.441406 13.085938 Z M 7.441406 13.085938 "/>
<path style=" stroke:none;fill-rule:nonzero;fill:rgb(98.823529%,98.823529%,98.823529%);fill-opacity:1;" d="M 11.90625 10.109375 C 11.082031 10.109375 10.417969 10.773438 10.417969 11.597656 C 10.417969 11.660156 10.421875 11.722656 10.429688 11.785156 C 10.519531 11.046875 11.144531 10.484375 11.90625 10.484375 C 12.667969 10.484375 13.292969 11.046875 13.382812 11.785156 C 13.390625 11.722656 13.394531 11.660156 13.394531 11.597656 C 13.394531 10.773438 12.730469 10.109375 11.90625 10.109375 Z M 11.90625 10.109375 "/>
<path style=" stroke:none;fill-rule:nonzero;fill:rgb(98.823529%,98.823529%,98.823529%);fill-opacity:1;" d="M 16.371094 10.109375 C 15.546875 10.109375 14.882812 10.773438 14.882812 11.597656 C 14.882812 11.660156 14.886719 11.722656 14.894531 11.785156 C 14.988281 11.046875 15.609375 10.484375 16.371094 10.484375 C 17.132812 10.484375 17.757812 11.046875 17.851562 11.785156 C 17.855469 11.722656 17.859375 11.660156 17.859375 11.597656 C 17.859375 10.773438 17.195312 10.109375 16.371094 10.109375 Z M 16.371094 10.109375 "/>
<path style=" stroke:none;fill-rule:nonzero;fill:rgb(98.823529%,98.823529%,98.823529%);fill-opacity:1;" d="M 7.441406 10.109375 C 6.617188 10.109375 5.953125 10.773438 5.953125 11.597656 C 5.953125 11.660156 5.957031 11.722656 5.964844 11.785156 C 6.054688 11.046875 6.679688 10.484375 7.441406 10.484375 C 8.203125 10.484375 8.828125 11.046875 8.917969 11.785156 C 8.925781 11.722656 8.929688 11.660156 8.929688 11.597656 C 8.929688 10.773438 8.265625 10.109375 7.441406 10.109375 Z M 7.441406 10.109375 "/>
<path style=" stroke:none;fill-rule:nonzero;fill:rgb(0%,0%,0%);fill-opacity:0.235294;" d="M 10.441406 11.847656 C 10.425781 11.925781 10.417969 12.011719 10.417969 12.09375 C 10.417969 12.917969 11.082031 13.582031 11.90625 13.582031 C 12.730469 13.582031 13.394531 12.917969 13.394531 12.09375 C 13.394531 12.011719 13.390625 11.925781 13.375 11.847656 C 13.257812 12.550781 12.648438 13.085938 11.90625 13.085938 C 11.167969 13.085938 10.558594 12.550781 10.441406 11.847656 Z M 10.441406 11.847656 "/>
<path style=" stroke:none;fill-rule:nonzero;fill:rgb(0%,0%,0%);fill-opacity:0.235294;" d="M 14.90625 11.847656 C 14.890625 11.925781 14.882812 12.011719 14.882812 12.09375 C 14.882812 12.917969 15.546875 13.582031 16.371094 13.582031 C 17.195312 13.582031 17.859375 12.917969 17.859375 12.09375 C 17.859375 12.011719 17.855469 11.925781 17.839844 11.847656 C 17.722656 12.550781 17.113281 13.085938 16.371094 13.085938 C 15.632812 13.085938 15.023438 12.550781 14.90625 11.847656 Z M 14.90625 11.847656 "/>
<path style=" stroke:none;fill-rule:nonzero;fill:rgb(0%,0%,0%);fill-opacity:0.235294;" d="M 5.972656 11.847656 C 5.960938 11.925781 5.953125 12.011719 5.953125 12.09375 C 5.953125 12.917969 6.617188 13.582031 7.441406 13.582031 C 8.265625 13.582031 8.929688 12.917969 8.929688 12.09375 C 8.929688 12.011719 8.921875 11.925781 8.910156 11.847656 C 8.792969 12.550781 8.183594 13.085938 7.441406 13.085938 C 6.703125 13.085938 6.089844 12.550781 5.972656 11.847656 Z M 5.972656 11.847656 "/>
<path style="fill:none;stroke-width:3;stroke-linecap:round;stroke-linejoin:round;stroke:rgb(12.941177%,12.941177%,12.941177%);stroke-opacity:1;stroke-miterlimit:4;" d="M 253.975747 -64.14001 C 271.557401 -64.14001 285.722715 -49.974696 285.722715 -32.393042 C 285.722715 -14.894713 271.557401 -0.646073 253.975747 -0.646073 C 236.477418 -0.646073 222.228778 -14.894713 222.228778 -32.393042 C 222.228778 -49.974696 236.477418 -64.14001 253.975747 -64.14001 Z M 253.975747 -64.14001 " transform="matrix(0.0468795,0,0,-0.0468795,0,10.079087)"/>
<path style="fill:none;stroke-width:3;stroke-linecap:round;stroke-linejoin:round;stroke:rgb(12.941177%,12.941177%,12.941177%);stroke-opacity:1;stroke-miterlimit:4;" d="M 349.216651 -64.14001 C 366.798306 -64.14001 380.96362 -49.974696 380.96362 -32.393042 C 380.96362 -14.894713 366.798306 -0.646073 349.216651 -0.646073 C 331.718322 -0.646073 317.469683 -14.894713 317.469683 -32.393042 C 317.469683 -49.974696 331.718322 -64.14001 349.216651 -64.14001 Z M 349.216651 -64.14001 " transform="matrix(0.0468795,0,0,-0.0468795,0,10.079087)"/>
<path style="fill:none;stroke-width:3;stroke-linecap:round;stroke-linejoin:round;stroke:rgb(12.941177%,12.941177%,12.941177%);stroke-opacity:1;stroke-miterlimit:4;" d="M 158.734842 -64.14001 C 176.316496 -64.14001 190.48181 -49.974696 190.48181 -32.393042 C 190.48181 -14.894713 176.316496 -0.646073 158.734842 -0.646073 C 141.236513 -0.646073 126.987873 -14.894713 126.987873 -32.393042 C 126.987873 -49.974696 141.236513 -64.14001 158.734842 -64.14001 Z M 158.734842 -64.14001 " transform="matrix(0.0468795,0,0,-0.0468795,0,10.079087)"/>
</g>
</svg>
